X:304
T:Dunsmuir Road Hornpipe
C:Gregory Brown, 2020
L:1/8
M:4/4
S:Colin Hume's website,  colinhume.com  - chords can also be printed below the stave.
Q:1/4=130
R:Hornpipe
%%MIDI ratio 3 1
K:G
P:A
|: (3DEF | "G"G>FG>A B>^AB>c | "/"d>^cd>e d2B2 | "C"c>de>c "G"B>cd>B | "Am"A>GF>G "D7"A2 (3DEF |
"G"G>FG>A B>^AB>c | "/"d>^cd>e d2B2 | "C"c>de>c "G"B>cd>B | "D"A2d2 "G"G2 :|
P:B
|: d2 | "G"b>^ab>g "D"=a>^ga>f | "C"g>fg>e "G"d2(3d^cd | "C"e>fg>e "G"d>BG>B | "A7"A>AB>^c "D"d2d2 |
"G"b>^ab>g "D"=a>^ga>f | "C"g>fg>e "G"d2(3d^cd | "C"e>fg>e "G"d>BG>B | "D7"A2d2 "G"G2 :|

